Newaita-dark/apps/48/gitter.svg

<svg height="48pt" viewBox="0 0 48 48" width="48pt" xmlns="http://www.w3.org/2000/svg" xmlns:xlink="http://www.w3.org/1999/xlink"><linearGradient id="a" gradientUnits="userSpaceOnUse" x1="23.81478" x2="23.81478" y1="42.0509045" y2="44.03547050005"><stop offset="0" stop-opacity=".27451"/><stop offset="1" stop-opacity="0"/></linearGradient><linearGradient id="b"><stop offset="0" stop-opacity=".313726"/><stop offset=".222222" stop-opacity=".27451"/><stop offset="1" stop-opacity="0"/></linearGradient><radialGradient id="c" cx="450.908936" cy="189.579361" gradientTransform="matrix(.00000026 -.117199 -.210958 -.00000015 79.684395 95.392999)" gradientUnits="userSpaceOnUse" r="21.166656" xlink:href="#b"/><radialGradient id="d" cx="450.908936" cy="189.579361" gradientTransform="matrix(-.00000026 .117199 .210958 .00000015 -31.80678 -11.291218)" gradientUnits="userSpaceOnUse" r="21.166656" xlink:href="#b"/><radialGradient id="e" cx="450.908936" cy="189.579361" gradientTransform="matrix(-.00000026 -.117199 .210958 -.00000015 -31.80678 95.392999)" gradientUnits="userSpaceOnUse" r="21.166656" xlink:href="#b"/><radialGradient id="f" cx="450.908936" cy="189.579361" gradientTransform="matrix(.00000026 .117199 -.210958 .00000015 79.684393 -11.291219)" gradientUnits="userSpaceOnUse" r="21.166656" xlink:href="#b"/><linearGradient id="g" gradientUnits="userSpaceOnUse" x1="23.814786" x2="23.814786" y1="42.0509015" y2="4.34415649995"><stop offset="0" stop-color="#ec407a"/><stop offset="1" stop-color="#f06292"/></linearGradient><linearGradient id="h"><stop offset="0" stop-color="#e0e0e0"/><stop offset="1" stop-color="#eee"/></linearGradient><linearGradient id="i" gradientUnits="userSpaceOnUse" x1="15.38038474995" x2="15.38038474995" xlink:href="#h" y1="35.10492275005" y2="10.2978545001"/><linearGradient id="j" gradientUnits="userSpaceOnUse" x1="21.33407674995" x2="21.33407674995" xlink:href="#h" y1="41.05861675005" y2="16.2515485001"/><linearGradient id="k" gradientUnits="userSpaceOnUse" x1="27.28777074995" x2="27.28777074995" xlink:href="#h" y1="41.05861675005" y2="16.2515485001"/><linearGradient id="l" gradientUnits="userSpaceOnUse" x1="33.24146274995" x2="33.24146274995" xlink:href="#h" y1="41.05861675005" y2="16.2515485001"/><path d="m7.691406 42.050781h32.496094v1.984375h-32.496094zm0 0" fill="url(#a)"/><path d="m40.1875 42.050781h3.96875v-1.984375h-3.96875zm0 0" fill="url(#c)"/><path d="m7.691406 42.050781h-3.96875v1.984375h3.96875zm0 0" fill="url(#d)"/><path d="m7.691406 42.050781h-3.96875v-1.984375h3.96875zm0 0" fill="url(#e)"/><path d="m40.1875 42.050781h3.96875v1.984375h-3.96875zm0 0" fill="url(#f)"/><path d="m5.457031 4.34375h36.714844c.820313 0 1.488281.667969 1.488281 1.488281v34.730469c0 .820312-.667968 1.488281-1.488281 1.488281h-36.714844c-.820312 0-1.488281-.667969-1.488281-1.488281v-34.730469c0-.820312.667969-1.488281 1.488281-1.488281zm0 0" fill="url(#g)"/><path d="m5.953125 42.050781c-1.097656 0-1.984375-.886719-1.984375-1.984375v-.25c0 1.101563.886719 1.988282 1.984375 1.988282h35.722656c1.097657 0 1.984375-.886719 1.984375-1.988282v.25c0 1.097656-.886718 1.984375-1.984375 1.984375zm0 0" fill-opacity=".196078"/><path d="m5.953125 4.34375c-1.097656 0-1.984375.886719-1.984375 1.984375v.25c0-1.101563.886719-1.984375 1.984375-1.984375h35.722656c1.097657 0 1.984375.882812 1.984375 1.984375v-.25c0-1.097656-.886718-1.984375-1.984375-1.984375zm0 0" fill="#fff" fill-opacity=".643312"/><path d="m5.457031 4.203125c-.898437 0-1.628906.730469-1.628906 1.628906v34.730469c0 .898438.730469 1.628906 1.628906 1.628906h36.714844c.898437 0 1.628906-.730468 1.628906-1.628906v-34.730469c0-.898437-.730469-1.628906-1.628906-1.628906zm0 .28125h36.714844c.75 0 1.347656.597656 1.347656 1.347656v34.730469c0 .75-.597656 1.347656-1.347656 1.347656h-36.714844c-.75 0-1.347656-.597656-1.347656-1.347656v-34.730469c0-.75.597656-1.347656 1.347656-1.347656zm0 0" fill="#212121"/><path d="m14.386719 10.296875h.992187c.550782 0 .992188.445313.992188.992187v10.917969c0 .546875-.441406.992188-.992188.992188h-.992187c-.546875 0-.992188-.445313-.992188-.992188v-10.917969c0-.546874.445313-.992187.992188-.992187zm0 0" fill="url(#i)"/><path d="m20.339844 13.273438h.996094c.546874 0 .992187.445312.992187.992187v17.863281c0 .546875-.445313.992188-.992187.992188h-.996094c-.546875 0-.992188-.445313-.992188-.992188v-17.863281c0-.546875.445313-.992187.992188-.992187zm0 0" fill="url(#j)"/><path d="m26.296875 13.273438h.992187c.546876 0 .992188.445312.992188.992187v17.863281c0 .546875-.445312.992188-.992188.992188h-.992187c-.550781 0-.992187-.445313-.992187-.992188v-17.863281c0-.546875.441406-.992187.992187-.992187zm0 0" fill="url(#k)"/><path d="m32.25 13.273438h.992188c.546874 0 .992187.445312.992187.992187v7.941406c0 .546875-.445313.992188-.992187.992188h-.992188c-.550781 0-.992188-.445313-.992188-.992188v-7.941406c0-.546875.441407-.992187.992188-.992187zm0 0" fill="url(#l)"/><g fill="#fff"><path d="m14.386719 10.296875c-.546875 0-.992188.445313-.992188.992187v.496094c0-.546875.445313-.992187.992188-.992187h.992187c.550782 0 .992188.445312.992188.992187v-.496094c0-.546874-.441406-.992187-.992188-.992187zm0 0"/><path d="m20.339844 13.273438c-.546875 0-.992188.445312-.992188.992187v.496094c0-.546875.445313-.992188.992188-.992188h.996094c.546874 0 .992187.445313.992187.992188v-.496094c0-.546875-.445313-.992187-.992187-.992187zm0 0"/><path d="m26.296875 13.273438c-.550781 0-.992187.445312-.992187.992187v.496094c0-.546875.441406-.992188.992187-.992188h.992187c.546876 0 .992188.445313.992188.992188v-.496094c0-.546875-.445312-.992187-.992188-.992187zm0 0"/><path d="m32.25 13.273438c-.550781 0-.992188.445312-.992188.992187v.496094c0-.546875.441407-.992188.992188-.992188h.992188c.550781 0 .992187.445313.992187.992188v-.496094c0-.546875-.441406-.992187-.992187-.992187zm0 0"/></g><path d="m14.386719 23.816406c-.546875 0-.992188-.441406-.992188-.992187v-.496094c0 .550781.445313.992187.992188.992187h.992187c.550782 0 .992188-.441406.992188-.992187v.496094c0 .550781-.441406.992187-.992188.992187zm0 0" fill-opacity=".235294"/><path d="m20.339844 33.742188c-.546875 0-.992188-.445313-.992188-.992188v-.496094c0 .546875.445313.992188.992188.992188h.996094c.546874 0 .992187-.445313.992187-.992188v.496094c0 .546875-.445313.992188-.992187.992188zm0 0" fill-opacity=".235294"/><path d="m26.296875 33.742188c-.550781 0-.992187-.445313-.992187-.992188v-.496094c0 .546875.441406.992188.992187.992188h.992187c.546876 0 .992188-.445313.992188-.992188v.496094c0 .546875-.445312.992188-.992188.992188zm0 0" fill-opacity=".235294"/><path d="m32.25 23.816406c-.550781 0-.992188-.441406-.992188-.992187v-.496094c0 .550781.441407.992187.992188.992187h.992188c.550781 0 .992187-.441406.992187-.992187v.496094c0 .550781-.441406.992187-.992187.992187zm0 0" fill-opacity=".235294"/><path d="m14.386719 10.15625c-.625 0-1.132813.507812-1.132813 1.132812v10.917969c0 .625.507813 1.132813 1.132813 1.132813h.992187c.625 0 1.132813-.507813 1.132813-1.132813v-10.917969c0-.625-.507813-1.132812-1.132813-1.132812zm0 .28125h.992187c.476563 0 .851563.378906.851563.851562v10.917969c0 .472657-.375.851563-.851563.851563h-.992187c-.472657 0-.851563-.378906-.851563-.851563v-10.917969c0-.472656.378906-.851562.851563-.851562zm0 0" fill="#212121"/><path d="m20.34375 13.132812c-.628906 0-1.136719.507813-1.136719 1.132813v17.863281c0 .625.507813 1.132813 1.136719 1.132813h.992188c.625 0 1.132812-.507813 1.132812-1.132813v-17.863281c0-.625-.507812-1.132813-1.132812-1.132813zm0 .28125h.992188c.472656 0 .851562.378907.851562.851563v17.863281c0 .472656-.378906.851563-.851562.851563h-.992188c-.476562 0-.855469-.378907-.855469-.851563v-17.863281c0-.472656.378907-.851563.855469-.851563zm0 0" fill="#212121"/><path d="m26.296875 13.132812c-.625 0-1.132813.507813-1.132813 1.132813v17.863281c0 .625.507813 1.132813 1.132813 1.132813h.992187c.625 0 1.132813-.507813 1.132813-1.132813v-17.863281c0-.625-.507813-1.132813-1.132813-1.132813zm0 .28125h.992187c.472657 0 .851563.378907.851563.851563v17.863281c0 .472656-.378906.851563-.851563.851563h-.992187c-.476563 0-.851563-.378907-.851563-.851563v-17.863281c0-.472656.375-.851563.851563-.851563zm0 0" fill="#212121"/><path d="m32.25 13.132812c-.625 0-1.132812.507813-1.132812 1.132813v7.941406c0 .625.507812 1.132813 1.132812 1.132813h.992188c.625 0 1.132812-.507813 1.132812-1.132813v-7.941406c0-.625-.507812-1.132813-1.132812-1.132813zm0 .28125h.992188c.472656 0 .851562.378907.851562.851563v7.941406c0 .472657-.378906.851563-.851562.851563h-.992188c-.476562 0-.851562-.378906-.851562-.851563v-7.941406c0-.472656.375-.851563.851562-.851563zm0 0" fill="#212121"/></svg>

<?xml version="1.0" encoding="UTF-8"?>
<svg xmlns="http://www.w3.org/2000/svg" xmlns:xlink="http://www.w3.org/1999/xlink" width="48pt" height="48pt" viewBox="0 0 48 48" version="1.1">
<defs>
<linearGradient id="linear0" gradientUnits="userSpaceOnUse" x1="254" y1="233.5" x2="254" y2="254.666672" gradientTransform="matrix(0.093759,0,0,0.093759,-0.00000572259,20.158178)">
<stop offset="0" style="stop-color:rgb(0%,0%,0%);stop-opacity:0.27451;"/>
<stop offset="1" style="stop-color:rgb(0%,0%,0%);stop-opacity:0;"/>
</linearGradient>
<radialGradient id="radial0" gradientUnits="userSpaceOnUse" cx="450.908936" cy="189.579361" fx="450.908936" fy="189.579361" r="21.166656" gradientTransform="matrix(0.000000261256,-0.117199,-0.210958,-0.000000152308,79.684395,95.392999)">
<stop offset="0" style="stop-color:rgb(0%,0%,0%);stop-opacity:0.313726;"/>
<stop offset="0.222222" style="stop-color:rgb(0%,0%,0%);stop-opacity:0.27451;"/>
<stop offset="1" style="stop-color:rgb(0%,0%,0%);stop-opacity:0;"/>
</radialGradient>
<radialGradient id="radial1" gradientUnits="userSpaceOnUse" cx="450.908936" cy="189.579361" fx="450.908936" fy="189.579361" r="21.166656" gradientTransform="matrix(-0.000000261256,0.117199,0.210958,0.000000152308,-31.80678,-11.291218)">
<stop offset="0" style="stop-color:rgb(0%,0%,0%);stop-opacity:0.313726;"/>
<stop offset="0.222222" style="stop-color:rgb(0%,0%,0%);stop-opacity:0.27451;"/>
<stop offset="1" style="stop-color:rgb(0%,0%,0%);stop-opacity:0;"/>
</radialGradient>
<radialGradient id="radial2" gradientUnits="userSpaceOnUse" cx="450.908936" cy="189.579361" fx="450.908936" fy="189.579361" r="21.166656" gradientTransform="matrix(-0.000000261256,-0.117199,0.210958,-0.000000152308,-31.80678,95.392999)">
<stop offset="0" style="stop-color:rgb(0%,0%,0%);stop-opacity:0.313726;"/>
<stop offset="0.222222" style="stop-color:rgb(0%,0%,0%);stop-opacity:0.27451;"/>
<stop offset="1" style="stop-color:rgb(0%,0%,0%);stop-opacity:0;"/>
</radialGradient>
<radialGradient id="radial3" gradientUnits="userSpaceOnUse" cx="450.908936" cy="189.579361" fx="450.908936" fy="189.579361" r="21.166656" gradientTransform="matrix(0.000000261256,0.117199,-0.210958,0.000000152308,79.684393,-11.291219)">
<stop offset="0" style="stop-color:rgb(0%,0%,0%);stop-opacity:0.313726;"/>
<stop offset="0.222222" style="stop-color:rgb(0%,0%,0%);stop-opacity:0.27451;"/>
<stop offset="1" style="stop-color:rgb(0%,0%,0%);stop-opacity:0;"/>
</radialGradient>
<linearGradient id="linear1" gradientUnits="userSpaceOnUse" x1="254" y1="233.5" x2="254" y2="-168.666672" gradientTransform="matrix(0.093759,0,0,0.093759,0,20.158175)">
<stop offset="0" style="stop-color:rgb(92.54902%,25.098041%,47.843137%);stop-opacity:1;"/>
<stop offset="1" style="stop-color:rgb(94.117647%,38.431373%,57.254905%);stop-opacity:1;"/>
</linearGradient>
<linearGradient id="linear2" gradientUnits="userSpaceOnUse" x1="201.083328" y1="159.416672" x2="201.083328" y2="-105.166656" gradientTransform="matrix(0.093759,0,0,0.093759,-3.472987,20.158175)">
<stop offset="0" style="stop-color:rgb(87.843138%,87.843138%,87.843138%);stop-opacity:1;"/>
<stop offset="1" style="stop-color:rgb(93.333334%,93.333334%,93.333334%);stop-opacity:1;"/>
</linearGradient>
<linearGradient id="linear3" gradientUnits="userSpaceOnUse" x1="201.083328" y1="159.416672" x2="201.083328" y2="-105.166656" gradientTransform="matrix(0.093759,0,0,0.093759,2.480705,26.111869)">
<stop offset="0" style="stop-color:rgb(87.843138%,87.843138%,87.843138%);stop-opacity:1;"/>
<stop offset="1" style="stop-color:rgb(93.333334%,93.333334%,93.333334%);stop-opacity:1;"/>
</linearGradient>
<linearGradient id="linear4" gradientUnits="userSpaceOnUse" x1="201.083328" y1="159.416672" x2="201.083328" y2="-105.166656" gradientTransform="matrix(0.093759,0,0,0.093759,8.434399,26.111869)">
<stop offset="0" style="stop-color:rgb(87.843138%,87.843138%,87.843138%);stop-opacity:1;"/>
<stop offset="1" style="stop-color:rgb(93.333334%,93.333334%,93.333334%);stop-opacity:1;"/>
</linearGradient>
<linearGradient id="linear5" gradientUnits="userSpaceOnUse" x1="201.083328" y1="159.416672" x2="201.083328" y2="-105.166656" gradientTransform="matrix(0.093759,0,0,0.093759,14.388091,26.111869)">
<stop offset="0" style="stop-color:rgb(87.843138%,87.843138%,87.843138%);stop-opacity:1;"/>
<stop offset="1" style="stop-color:rgb(93.333334%,93.333334%,93.333334%);stop-opacity:1;"/>
</linearGradient>
</defs>
<g id="surface1">
<path style=" stroke:none;fill-rule:nonzero;fill:url(#linear0);" d="M 7.691406 42.050781 L 40.1875 42.050781 L 40.1875 44.035156 L 7.691406 44.035156 Z M 7.691406 42.050781 "/>
<path style=" stroke:none;fill-rule:nonzero;fill:url(#radial0);" d="M 40.1875 42.050781 L 44.15625 42.050781 L 44.15625 40.066406 L 40.1875 40.066406 Z M 40.1875 42.050781 "/>
<path style=" stroke:none;fill-rule:nonzero;fill:url(#radial1);" d="M 7.691406 42.050781 L 3.722656 42.050781 L 3.722656 44.035156 L 7.691406 44.035156 Z M 7.691406 42.050781 "/>
<path style=" stroke:none;fill-rule:nonzero;fill:url(#radial2);" d="M 7.691406 42.050781 L 3.722656 42.050781 L 3.722656 40.066406 L 7.691406 40.066406 Z M 7.691406 42.050781 "/>
<path style=" stroke:none;fill-rule:nonzero;fill:url(#radial3);" d="M 40.1875 42.050781 L 44.15625 42.050781 L 44.15625 44.035156 L 40.1875 44.035156 Z M 40.1875 42.050781 "/>
<path style=" stroke:none;fill-rule:nonzero;fill:url(#linear1);" d="M 5.457031 4.34375 L 42.171875 4.34375 C 42.992188 4.34375 43.660156 5.011719 43.660156 5.832031 L 43.660156 40.5625 C 43.660156 41.382812 42.992188 42.050781 42.171875 42.050781 L 5.457031 42.050781 C 4.636719 42.050781 3.96875 41.382812 3.96875 40.5625 L 3.96875 5.832031 C 3.96875 5.011719 4.636719 4.34375 5.457031 4.34375 Z M 5.457031 4.34375 "/>
<path style=" stroke:none;fill-rule:nonzero;fill:rgb(0%,0%,0%);fill-opacity:0.196078;" d="M 5.953125 42.050781 C 4.855469 42.050781 3.96875 41.164062 3.96875 40.066406 L 3.96875 39.816406 C 3.96875 40.917969 4.855469 41.804688 5.953125 41.804688 L 41.675781 41.804688 C 42.773438 41.804688 43.660156 40.917969 43.660156 39.816406 L 43.660156 40.066406 C 43.660156 41.164062 42.773438 42.050781 41.675781 42.050781 Z M 5.953125 42.050781 "/>
<path style=" stroke:none;fill-rule:nonzero;fill:rgb(100%,100%,100%);fill-opacity:0.643312;" d="M 5.953125 4.34375 C 4.855469 4.34375 3.96875 5.230469 3.96875 6.328125 L 3.96875 6.578125 C 3.96875 5.476562 4.855469 4.59375 5.953125 4.59375 L 41.675781 4.59375 C 42.773438 4.59375 43.660156 5.476562 43.660156 6.578125 L 43.660156 6.328125 C 43.660156 5.230469 42.773438 4.34375 41.675781 4.34375 Z M 5.953125 4.34375 "/>
<path style=" stroke:none;fill-rule:nonzero;fill:rgb(12.941177%,12.941177%,12.941177%);fill-opacity:1;" d="M 5.457031 4.203125 C 4.558594 4.203125 3.828125 4.933594 3.828125 5.832031 L 3.828125 40.5625 C 3.828125 41.460938 4.558594 42.191406 5.457031 42.191406 L 42.171875 42.191406 C 43.070312 42.191406 43.800781 41.460938 43.800781 40.5625 L 43.800781 5.832031 C 43.800781 4.933594 43.070312 4.203125 42.171875 4.203125 Z M 5.457031 4.484375 L 42.171875 4.484375 C 42.921875 4.484375 43.519531 5.082031 43.519531 5.832031 L 43.519531 40.5625 C 43.519531 41.3125 42.921875 41.910156 42.171875 41.910156 L 5.457031 41.910156 C 4.707031 41.910156 4.109375 41.3125 4.109375 40.5625 L 4.109375 5.832031 C 4.109375 5.082031 4.707031 4.484375 5.457031 4.484375 Z M 5.457031 4.484375 "/>
<path style=" stroke:none;fill-rule:nonzero;fill:url(#linear2);" d="M 14.386719 10.296875 L 15.378906 10.296875 C 15.929688 10.296875 16.371094 10.742188 16.371094 11.289062 L 16.371094 22.207031 C 16.371094 22.753906 15.929688 23.199219 15.378906 23.199219 L 14.386719 23.199219 C 13.839844 23.199219 13.394531 22.753906 13.394531 22.207031 L 13.394531 11.289062 C 13.394531 10.742188 13.839844 10.296875 14.386719 10.296875 Z M 14.386719 10.296875 "/>
<path style=" stroke:none;fill-rule:nonzero;fill:url(#linear3);" d="M 20.339844 13.273438 L 21.335938 13.273438 C 21.882812 13.273438 22.328125 13.71875 22.328125 14.265625 L 22.328125 32.128906 C 22.328125 32.675781 21.882812 33.121094 21.335938 33.121094 L 20.339844 33.121094 C 19.792969 33.121094 19.347656 32.675781 19.347656 32.128906 L 19.347656 14.265625 C 19.347656 13.71875 19.792969 13.273438 20.339844 13.273438 Z M 20.339844 13.273438 "/>
<path style=" stroke:none;fill-rule:nonzero;fill:url(#linear4);" d="M 26.296875 13.273438 L 27.289062 13.273438 C 27.835938 13.273438 28.28125 13.71875 28.28125 14.265625 L 28.28125 32.128906 C 28.28125 32.675781 27.835938 33.121094 27.289062 33.121094 L 26.296875 33.121094 C 25.746094 33.121094 25.304688 32.675781 25.304688 32.128906 L 25.304688 14.265625 C 25.304688 13.71875 25.746094 13.273438 26.296875 13.273438 Z M 26.296875 13.273438 "/>
<path style=" stroke:none;fill-rule:nonzero;fill:url(#linear5);" d="M 32.25 13.273438 L 33.242188 13.273438 C 33.789062 13.273438 34.234375 13.71875 34.234375 14.265625 L 34.234375 22.207031 C 34.234375 22.753906 33.789062 23.199219 33.242188 23.199219 L 32.25 23.199219 C 31.699219 23.199219 31.257812 22.753906 31.257812 22.207031 L 31.257812 14.265625 C 31.257812 13.71875 31.699219 13.273438 32.25 13.273438 Z M 32.25 13.273438 "/>
<path style=" stroke:none;fill-rule:nonzero;fill:rgb(100%,100%,100%);fill-opacity:1;" d="M 14.386719 10.296875 C 13.839844 10.296875 13.394531 10.742188 13.394531 11.289062 L 13.394531 11.785156 C 13.394531 11.238281 13.839844 10.792969 14.386719 10.792969 L 15.378906 10.792969 C 15.929688 10.792969 16.371094 11.238281 16.371094 11.785156 L 16.371094 11.289062 C 16.371094 10.742188 15.929688 10.296875 15.378906 10.296875 Z M 14.386719 10.296875 "/>
<path style=" stroke:none;fill-rule:nonzero;fill:rgb(100%,100%,100%);fill-opacity:1;" d="M 20.339844 13.273438 C 19.792969 13.273438 19.347656 13.71875 19.347656 14.265625 L 19.347656 14.761719 C 19.347656 14.214844 19.792969 13.769531 20.339844 13.769531 L 21.335938 13.769531 C 21.882812 13.769531 22.328125 14.214844 22.328125 14.761719 L 22.328125 14.265625 C 22.328125 13.71875 21.882812 13.273438 21.335938 13.273438 Z M 20.339844 13.273438 "/>
<path style=" stroke:none;fill-rule:nonzero;fill:rgb(100%,100%,100%);fill-opacity:1;" d="M 26.296875 13.273438 C 25.746094 13.273438 25.304688 13.71875 25.304688 14.265625 L 25.304688 14.761719 C 25.304688 14.214844 25.746094 13.769531 26.296875 13.769531 L 27.289062 13.769531 C 27.835938 13.769531 28.28125 14.214844 28.28125 14.761719 L 28.28125 14.265625 C 28.28125 13.71875 27.835938 13.273438 27.289062 13.273438 Z M 26.296875 13.273438 "/>
<path style=" stroke:none;fill-rule:nonzero;fill:rgb(100%,100%,100%);fill-opacity:1;" d="M 32.25 13.273438 C 31.699219 13.273438 31.257812 13.71875 31.257812 14.265625 L 31.257812 14.761719 C 31.257812 14.214844 31.699219 13.769531 32.25 13.769531 L 33.242188 13.769531 C 33.792969 13.769531 34.234375 14.214844 34.234375 14.761719 L 34.234375 14.265625 C 34.234375 13.71875 33.792969 13.273438 33.242188 13.273438 Z M 32.25 13.273438 "/>
<path style=" stroke:none;fill-rule:nonzero;fill:rgb(0%,0%,0%);fill-opacity:0.235294;" d="M 14.386719 23.816406 C 13.839844 23.816406 13.394531 23.375 13.394531 22.824219 L 13.394531 22.328125 C 13.394531 22.878906 13.839844 23.320312 14.386719 23.320312 L 15.378906 23.320312 C 15.929688 23.320312 16.371094 22.878906 16.371094 22.328125 L 16.371094 22.824219 C 16.371094 23.375 15.929688 23.816406 15.378906 23.816406 Z M 14.386719 23.816406 "/>
<path style=" stroke:none;fill-rule:nonzero;fill:rgb(0%,0%,0%);fill-opacity:0.235294;" d="M 20.339844 33.742188 C 19.792969 33.742188 19.347656 33.296875 19.347656 32.75 L 19.347656 32.253906 C 19.347656 32.800781 19.792969 33.246094 20.339844 33.246094 L 21.335938 33.246094 C 21.882812 33.246094 22.328125 32.800781 22.328125 32.253906 L 22.328125 32.75 C 22.328125 33.296875 21.882812 33.742188 21.335938 33.742188 Z M 20.339844 33.742188 "/>
<path style=" stroke:none;fill-rule:nonzero;fill:rgb(0%,0%,0%);fill-opacity:0.235294;" d="M 26.296875 33.742188 C 25.746094 33.742188 25.304688 33.296875 25.304688 32.75 L 25.304688 32.253906 C 25.304688 32.800781 25.746094 33.246094 26.296875 33.246094 L 27.289062 33.246094 C 27.835938 33.246094 28.28125 32.800781 28.28125 32.253906 L 28.28125 32.75 C 28.28125 33.296875 27.835938 33.742188 27.289062 33.742188 Z M 26.296875 33.742188 "/>
<path style=" stroke:none;fill-rule:nonzero;fill:rgb(0%,0%,0%);fill-opacity:0.235294;" d="M 32.25 23.816406 C 31.699219 23.816406 31.257812 23.375 31.257812 22.824219 L 31.257812 22.328125 C 31.257812 22.878906 31.699219 23.320312 32.25 23.320312 L 33.242188 23.320312 C 33.792969 23.320312 34.234375 22.878906 34.234375 22.328125 L 34.234375 22.824219 C 34.234375 23.375 33.792969 23.816406 33.242188 23.816406 Z M 32.25 23.816406 "/>
<path style=" stroke:none;fill-rule:nonzero;fill:rgb(12.941177%,12.941177%,12.941177%);fill-opacity:1;" d="M 14.386719 10.15625 C 13.761719 10.15625 13.253906 10.664062 13.253906 11.289062 L 13.253906 22.207031 C 13.253906 22.832031 13.761719 23.339844 14.386719 23.339844 L 15.378906 23.339844 C 16.003906 23.339844 16.511719 22.832031 16.511719 22.207031 L 16.511719 11.289062 C 16.511719 10.664062 16.003906 10.15625 15.378906 10.15625 Z M 14.386719 10.4375 L 15.378906 10.4375 C 15.855469 10.4375 16.230469 10.816406 16.230469 11.289062 L 16.230469 22.207031 C 16.230469 22.679688 15.855469 23.058594 15.378906 23.058594 L 14.386719 23.058594 C 13.914062 23.058594 13.535156 22.679688 13.535156 22.207031 L 13.535156 11.289062 C 13.535156 10.816406 13.914062 10.4375 14.386719 10.4375 Z M 14.386719 10.4375 "/>
<path style=" stroke:none;fill-rule:nonzero;fill:rgb(12.941177%,12.941177%,12.941177%);fill-opacity:1;" d="M 20.34375 13.132812 C 19.714844 13.132812 19.207031 13.640625 19.207031 14.265625 L 19.207031 32.128906 C 19.207031 32.753906 19.714844 33.261719 20.34375 33.261719 L 21.335938 33.261719 C 21.960938 33.261719 22.46875 32.753906 22.46875 32.128906 L 22.46875 14.265625 C 22.46875 13.640625 21.960938 13.132812 21.335938 13.132812 Z M 20.34375 13.414062 L 21.335938 13.414062 C 21.808594 13.414062 22.1875 13.792969 22.1875 14.265625 L 22.1875 32.128906 C 22.1875 32.601562 21.808594 32.980469 21.335938 32.980469 L 20.34375 32.980469 C 19.867188 32.980469 19.488281 32.601562 19.488281 32.128906 L 19.488281 14.265625 C 19.488281 13.792969 19.867188 13.414062 20.34375 13.414062 Z M 20.34375 13.414062 "/>
<path style=" stroke:none;fill-rule:nonzero;fill:rgb(12.941177%,12.941177%,12.941177%);fill-opacity:1;" d="M 26.296875 13.132812 C 25.671875 13.132812 25.164062 13.640625 25.164062 14.265625 L 25.164062 32.128906 C 25.164062 32.753906 25.671875 33.261719 26.296875 33.261719 L 27.289062 33.261719 C 27.914062 33.261719 28.421875 32.753906 28.421875 32.128906 L 28.421875 14.265625 C 28.421875 13.640625 27.914062 13.132812 27.289062 13.132812 Z M 26.296875 13.414062 L 27.289062 13.414062 C 27.761719 13.414062 28.140625 13.792969 28.140625 14.265625 L 28.140625 32.128906 C 28.140625 32.601562 27.761719 32.980469 27.289062 32.980469 L 26.296875 32.980469 C 25.820312 32.980469 25.445312 32.601562 25.445312 32.128906 L 25.445312 14.265625 C 25.445312 13.792969 25.820312 13.414062 26.296875 13.414062 Z M 26.296875 13.414062 "/>
<path style=" stroke:none;fill-rule:nonzero;fill:rgb(12.941177%,12.941177%,12.941177%);fill-opacity:1;" d="M 32.25 13.132812 C 31.625 13.132812 31.117188 13.640625 31.117188 14.265625 L 31.117188 22.207031 C 31.117188 22.832031 31.625 23.339844 32.25 23.339844 L 33.242188 23.339844 C 33.867188 23.339844 34.375 22.832031 34.375 22.207031 L 34.375 14.265625 C 34.375 13.640625 33.867188 13.132812 33.242188 13.132812 Z M 32.25 13.414062 L 33.242188 13.414062 C 33.714844 13.414062 34.09375 13.792969 34.09375 14.265625 L 34.09375 22.207031 C 34.09375 22.679688 33.714844 23.058594 33.242188 23.058594 L 32.25 23.058594 C 31.773438 23.058594 31.398438 22.679688 31.398438 22.207031 L 31.398438 14.265625 C 31.398438 13.792969 31.773438 13.414062 32.25 13.414062 Z M 32.25 13.414062 "/>
</g>
</svg>
